src/lib/packages/icons/src/assets/filled/presentation-dollar.svg

<svg width="24" height="24" viewBox="0 0 24 24" fill="none" xmlns="http://www.w3.org/2000/svg">
<path d="M21 2.25H3C2.586 2.25 2.25 2.586 2.25 3C2.25 3.414 2.586 3.75 3 3.75H4V13C4 15.29 5.21 16.5 7.5 16.5H11.25V18.6L8.58002 20.38C8.24002 20.61 8.15 21.07 8.38 21.42C8.61 21.76 9.06998 21.85 9.41998 21.62L12 19.9L14.58 21.62C14.71 21.71 14.86 21.75 15 21.75C15.24 21.75 15.48 21.63 15.62 21.42C15.85 21.07 15.76 20.61 15.42 20.38L12.75 18.6V16.5H16.5C18.79 16.5 20 15.29 20 13V3.75H21C21.414 3.75 21.75 3.414 21.75 3C21.75 2.586 21.414 2.25 21 2.25ZM13.85 12.698C13.545 13.009 13.164 13.216 12.75 13.307V13.5C12.75 13.914 12.414 14.25 12 14.25C11.586 14.25 11.25 13.914 11.25 13.5V13.3051C10.335 13.1031 9.62198 12.337 9.51398 11.36C9.46798 10.948 9.765 10.577 10.177 10.532C10.584 10.488 10.959 10.7829 11.004 11.1949C11.046 11.5749 11.356 11.861 11.725 11.861H12.276C12.465 11.861 12.645 11.784 12.782 11.645C12.924 11.501 13.001 11.313 13.001 11.113C13.001 10.769 12.773 10.47 12.449 10.386L11.182 10.067C10.699 9.94202 10.267 9.65696 9.96503 9.26196C9.66603 8.87896 9.5 8.38796 9.5 7.88696C9.5 6.81196 10.251 5.91399 11.25 5.69299V5.5C11.25 5.086 11.586 4.75 12 4.75C12.414 4.75 12.75 5.086 12.75 5.5V5.69495C13.665 5.89695 14.378 6.66301 14.486 7.64001C14.532 8.05201 14.235 8.42302 13.823 8.46802C13.422 8.51002 13.041 8.21705 12.996 7.80505C12.954 7.42505 12.644 7.13904 12.275 7.13904H11.724C11.325 7.13904 10.999 7.47396 10.999 7.88696C10.999 8.05696 11.053 8.21995 11.151 8.34595C11.255 8.48195 11.392 8.57301 11.55 8.61401L12.817 8.93298C13.808 9.18798 14.499 10.084 14.499 11.113C14.5 11.71 14.27 12.273 13.85 12.698Z" fill="currentColor"/>
</svg>

<svg xmlns="http://www.w3.org/2000/svg" width="24" height="24" fill="none"><path fill="currentColor" d="M21 2.25H3a.75.75 0 0 0 0 1.5h1V13c0 2.29 1.21 3.5 3.5 3.5h3.75v2.1l-2.67 1.78c-.34.23-.43.69-.2 1.04.23.34.69.43 1.04.2L12 19.9l2.58 1.72a.751.751 0 0 0 .84-1.24l-2.67-1.78v-2.1h3.75c2.29 0 3.5-1.21 3.5-3.5V3.75h1a.75.75 0 0 0 0-1.5Zm-7.15 10.448a2.194 2.194 0 0 1-1.1.609v.193a.75.75 0 0 1-1.5 0v-.195a2.236 2.236 0 0 1-1.736-1.945.75.75 0 1 1 1.49-.165c.042.38.352.666.721.666h.551a.708.708 0 0 0 .506-.216.751.751 0 0 0 .219-.532.747.747 0 0 0-.552-.727l-1.267-.319A2.244 2.244 0 0 1 9.5 7.887c0-1.075.751-1.973 1.75-2.194V5.5a.75.75 0 0 1 1.5 0v.195a2.236 2.236 0 0 1 1.736 1.945.75.75 0 0 1-.663.828.757.757 0 0 1-.827-.663.735.735 0 0 0-.721-.666h-.551a.738.738 0 0 0-.725.748.749.749 0 0 0 .551.727l1.267.319a2.246 2.246 0 0 1 1.682 2.18 2.235 2.235 0 0 1-.649 1.585Z"/></svg>
